img/social-links/social-links_telegram.svg

<svg width="30" height="31" viewBox="0 0 30 31" fill="none" xmlns="http://www.w3.org/2000/svg">
<path d="M15 27.7567C18.1826 27.7567 21.2348 26.4924 23.4853 24.242C25.7357 21.9916 27 18.9393 27 15.7567C27 12.5741 25.7357 9.52187 23.4853 7.27143C21.2348 5.021 18.1826 3.75671 15 3.75671C11.8174 3.75671 8.76516 5.021 6.51472 7.27143C4.26428 9.52187 3 12.5741 3 15.7567C3 18.9393 4.26428 21.9916 6.51472 24.242C8.76516 26.4924 11.8174 27.7567 15 27.7567ZM15 30.7567C6.7155 30.7567 0 24.0412 0 15.7567C0 7.47221 6.7155 0.756714 15 0.756714C23.2845 0.756714 30 7.47221 30 15.7567C30 24.0412 23.2845 30.7567 15 30.7567ZM10.335 17.5117L6.588 16.3432C5.778 16.0957 5.7735 15.5377 6.7695 15.1372L21.369 9.49721C22.2165 9.15221 22.6965 9.58871 22.422 10.6822L19.9365 22.4122C19.7625 23.2477 19.26 23.4472 18.5625 23.0617L14.736 20.2297L12.9525 21.9517C12.7695 22.1287 12.621 22.2802 12.339 22.3177C12.0585 22.3567 11.8275 22.2727 11.658 21.8077L10.353 17.5012L10.335 17.5132V17.5117Z" fill="white"/>
</svg>

<svg width="30" height="31" fill="none" xmlns="http://www.w3.org/2000/svg"><path d="M15 27.757a12 12 0 100-24 12 12 0 000 24zm0 3c-8.285 0-15-6.716-15-15 0-8.285 6.715-15 15-15s15 6.715 15 15c0 8.284-6.715 15-15 15zm-4.665-13.245l-3.747-1.169c-.81-.247-.814-.805.181-1.206l14.6-5.64c.848-.345 1.328.092 1.053 1.185l-2.486 11.73c-.174.836-.676 1.035-1.373.65l-3.827-2.832-1.784 1.722c-.182.177-.331.328-.613.366-.28.039-.511-.045-.681-.51L10.353 17.5l-.018.012v-.001z" fill="#fff"/></svg>
